X: 41308
T: Tune For The Little Girl
R: slide
M: 12/8
K: Amajor
A2ce2ae2cA2c|dB=G GBd dBG GAB|A2ce2ae2cA2c|d2d3d dcBA3:|
a2AB2Aa2AB2A|=GFG ABA G3G2B|a2AB2Aa2AB2A|def =gfe dB=G A3|
a2AB2Aa2AB2A|=GFG ABA G3G2B|cBA dcB ece fga|efg aec dBG A3|

